X:1
T:Chlysterbärg-Echo  Bb
T:Karl Anderhalden  (17.8.1925-7.11.1979)
T:Dirigenten-Notiz, Edi Gasser
C:Unterwalden (CH)
%%partsbox
M:3/4
R:Naturjodel
L:1/8
K:Bb
[P:A] "_sehr langsam, aber jubelnd"   F4G/F/ =E/F/ | (e3e/) d/cF | E2DC2C | C6 | F4G/F/ =E/F/ | (d3d/) c/BF | D2CB,2B, | B,6 | 
F4G/F/ =E/F/ | c3B AB | c2F2f2 | d3c Bc | !breath!d6 | F4 G/F/ =E/F/ |  (e3e/) d/cF | E2DC2C |  
!breath!C6 | F4 G/F/ =E/F/ | (d3d/) c/BF | D2CB,2B, | B,6 | F4 G/F/ =E/F/ | (B6 | B4)z2 || 
L:1/8
M:3/4
[P:B] "_langsam"  B A G | F2f3e | d>cd2c2 | !fermata! !breath! B4 D/B,/ D/E/ | F>G Ff dc/B/ | 
ACE2E/A,/ C/G/ | F>G Ff ed/c/ | B/d/ B/d/ F>z D/B,/ D/E/ | 
F>G Ff d/F/ c/B/ | A/E/ F/A/E2 E/A,/ C/G/ | F>G Ff e/d/ c/F/ | (B6 | B2)z2 || 
L:1/16
M:6/8
[P:C] FF | GG FF ff d3F dB | Ac Fz FcE4FF | GG FF ff e3F dc | 
Bd Fz FBD4FF | GG FF ff dF dF cB | Ae FA FA E3f ed | c3f e2 F2 d2 c2 | B8z2z2 |] 
W:
W:Reihenfolge: A-B-C
W:notiert Edi Gasser, Angabe: Karl Anderhalden
W:UJV-Naturjodelsammlung: Code-Nr: 09-01
W:http://www.naturjodler.ch/code 09.htm  (with AUDIO)
%May 4, 2018

